modules/themify-icons/icons/export.svg

<?xml version="1.0" encoding="utf-8"?>
<!-- Generated by IcoMoon.io -->
<!DOCTYPE svg PUBLIC "-//W3C//DTD SVG 1.1//EN" "http://www.w3.org/Graphics/SVG/1.1/DTD/svg11.dtd">
<svg version="1.1" xmlns="http://www.w3.org/2000/svg" xmlns:xlink="http://www.w3.org/1999/xlink" width="17" height="17" viewBox="0 0 17 17">
<g>
</g>
	<path d="M4.359 5.956l-0.718-0.697 4.859-5.005 4.859 5.005-0.718 0.696-3.641-3.75v10.767h-1v-10.767l-3.641 3.751zM16 9.030v6.47c0 0.276-0.224 0.5-0.5 0.5h-14c-0.276 0-0.5-0.224-0.5-0.5v-6.475h-1v6.475c0 0.827 0.673 1.5 1.5 1.5h14c0.827 0 1.5-0.673 1.5-1.5v-6.47h-1z" fill="#000000" />
</svg>

<svg xmlns="http://www.w3.org/2000/svg" width="17" height="17"><path d="M4.359 5.956l-.718-.697L8.5.254l4.859 5.005-.718.696L9 2.205v10.767H8V2.205L4.359 5.956zM16 9.03v6.47a.5.5 0 0 1-.5.5h-14a.5.5 0 0 1-.5-.5V9.025H0V15.5c0 .827.673 1.5 1.5 1.5h14c.827 0 1.5-.673 1.5-1.5V9.03h-1z"/></svg>
